frontend/app/assets/themes/light/parallax/parallax-background-bubbles-transparent-2.svg

<svg xmlns="http://www.w3.org/2000/svg" width="100%" height="100%" fill="none" aria-label="Transparent parallax background with bubbles rising in the middle" preserveAspectRatio="xMidYMid slice" viewBox="0 0 1600 900"><defs><radialGradient id="a" cx="0" cy="0" r="1" gradientTransform="matrix(720 0 0 620 800 420)" gradientUnits="userSpaceOnUse"><stop offset="0" stop-color="#38bdf8" stop-opacity=".2"/><stop offset=".55" stop-color="#60a5fa" stop-opacity=".1"/><stop offset="1" stop-color="#38bdf8" stop-opacity="0"/></radialGradient><radialGradient id="b" cx="0" cy="0" r="1" gradientUnits="objectBoundingBox"><stop offset="0" stop-color="#f8fafc" stop-opacity=".2"/><stop offset=".35" stop-color="#38bdf8" stop-opacity=".16"/><stop offset="1" stop-color="#38bdf8" stop-opacity=".02"/></radialGradient><linearGradient id="c" x1="0" x2="1" y1="0" y2="1" gradientUnits="objectBoundingBox"><stop offset="0" stop-color="#cbd5f5" stop-opacity=".3"/><stop offset=".55" stop-color="#38bdf8" stop-opacity=".36"/><stop offset="1" stop-color="#22c55e" stop-opacity=".16"/></linearGradient></defs><g transform="translate(-160 -90) scale(1.35)"><circle cx="800" cy="430" r="560" fill="url(#a)"/><path stroke="#38bdf8" stroke-opacity=".1" stroke-width="12" d="M790 840c-20-100 30-190 10-280s20-170 5-260 15-150 0-260"/></g><g transform="translate(812 821.25) scale(1.35)"><circle r="52" fill="url(#b)" opacity=".78"/><circle r="52" stroke="url(#c)" stroke-width="2.4" opacity=".7"/><circle cx="-18" cy="-20" r="12" fill="#f8fafc" opacity=".1"/></g><g transform="translate(1007.75 720) scale(1.35)"><circle r="34" fill="url(#b)" opacity=".82"/><circle r="34" stroke="url(#c)" stroke-width="2.1" opacity=".7"/><circle cx="-12" cy="-14" r="8" fill="#f8fafc" opacity=".1"/></g><g transform="translate(906.5 544.5) scale(1.35)"><circle r="64" fill="url(#b)" opacity=".7"/><circle r="64" stroke="url(#c)" stroke-width="2.6" opacity=".65"/><circle cx="-22" cy="-24" r="14" fill="#f8fafc" opacity=".1"/></g><g transform="translate(1061.75 382.5) scale(1.35)"><circle r="28" fill="url(#b)" opacity=".8"/><circle r="28" stroke="url(#c)" stroke-width="2" opacity=".68"/><circle cx="-10" cy="-12" r="7" fill="#f8fafc" opacity=".1"/></g><g transform="translate(879.5 193.5) scale(1.35)"><circle r="42" fill="url(#b)" opacity=".72"/><circle r="42" stroke="url(#c)" stroke-width="2.2" opacity=".62"/><circle cx="-14" cy="-16" r="9" fill="#f8fafc" opacity=".1"/></g><g transform="translate(974 38.25) scale(1.35)"><circle r="24" fill="url(#b)" opacity=".72"/><circle r="24" stroke="url(#c)" stroke-width="1.9" opacity=".6"/><circle cx="-8" cy="-10" r="6" fill="#f8fafc" opacity=".1"/></g><g opacity=".75"><g transform="translate(771.5 902.25) scale(1.35)"><circle r="10" fill="url(#b)"/><circle r="10" stroke="url(#c)" stroke-width="1.5" opacity=".7"/></g><g transform="translate(1088.75 855) scale(1.35)"><circle r="8" fill="url(#b)"/><circle r="8" stroke="url(#c)" stroke-width="1.4" opacity=".7"/></g><g transform="translate(812 666) scale(1.35)"><circle r="7" fill="url(#b)"/><circle r="7" stroke="url(#c)" stroke-width="1.3" opacity=".7"/></g><g transform="translate(1122.5 598.5) scale(1.35)"><circle r="9" fill="url(#b)"/><circle r="9" stroke="url(#c)" stroke-width="1.4" opacity=".7"/></g><g transform="translate(785 396) scale(1.35)"><circle r="6" fill="url(#b)"/><circle r="6" stroke="url(#c)" stroke-width="1.2" opacity=".7"/></g><g transform="translate(1095.5 288) scale(1.35)"><circle r="7" fill="url(#b)"/><circle r="7" stroke="url(#c)" stroke-width="1.3" opacity=".7"/></g><g transform="translate(832.25 78.75) scale(1.35)"><circle r="8" fill="url(#b)"/><circle r="8" stroke="url(#c)" stroke-width="1.4" opacity=".7"/></g><g transform="translate(1061.75 -9) scale(1.35)"><circle r="6" fill="url(#b)"/><circle r="6" stroke="url(#c)" stroke-width="1.2" opacity=".7"/></g></g><g opacity=".9" transform="translate(-160 -90) scale(1.35)"><path stroke="#60a5fa" stroke-linecap="round" stroke-opacity=".12" stroke-width="2.2" d="M1040 240h225c45 0 80 35 80 80v40c0 45 35 80 80 80h135"/><path stroke="#22c55e" stroke-linecap="round" stroke-opacity=".09" stroke-width="2.2" d="M980 585h230c40 0 72-32 72-72v-63c0-40 32-72 72-72h206"/><circle cx="1345" cy="320" r="5" fill="#38bdf8" opacity=".3"/><circle cx="1282" cy="513" r="5" fill="#22c55e" opacity=".26"/></g></svg>

<svg xmlns="http://www.w3.org/2000/svg" width="1600" height="800" viewBox="0 0 1600 800" preserveAspectRatio="xMidYMid slice" fill="none" role="img" aria-label="Transparent parallax background with bubbles rising in the middle">
  <defs>
    <!-- Ambient washes -->
    <radialGradient id="washBlue" cx="0" cy="0" r="1" gradientUnits="userSpaceOnUse" gradientTransform="translate(980 300) scale(980 620)">
      <stop offset="0" stop-color="#1D4ED8" stop-opacity="0.18"></stop>
      <stop offset="0.6" stop-color="#1E3A8A" stop-opacity="0.12"></stop>
      <stop offset="1" stop-color="#1D4ED8" stop-opacity="0"></stop>
    </radialGradient>

    <radialGradient id="washGreen" cx="0" cy="0" r="1" gradientUnits="userSpaceOnUse" gradientTransform="translate(1180 760) rotate(-10) scale(900 520)">
      <stop offset="0" stop-color="#22C55E" stop-opacity="0.10"></stop>
      <stop offset="0.7" stop-color="#22C55E" stop-opacity="0.05"></stop>
      <stop offset="1" stop-color="#22C55E" stop-opacity="0"></stop>
    </radialGradient>

    <!-- Center column glow -->
    <radialGradient id="columnGlow" cx="0" cy="0" r="1" gradientUnits="userSpaceOnUse" gradientTransform="translate(800 420) scale(720 620)">
      <stop offset="0" stop-color="#38BDF8" stop-opacity="0.20"></stop>
      <stop offset="0.55" stop-color="#60A5FA" stop-opacity="0.10"></stop>
      <stop offset="1" stop-color="#38BDF8" stop-opacity="0"></stop>
    </radialGradient>

    <!-- Bubble fill + stroke -->
    <radialGradient id="bubbleFill" cx="0" cy="0" r="1" gradientUnits="objectBoundingBox">
      <stop offset="0" stop-color="#F8FAFC" stop-opacity="0.20"></stop>
      <stop offset="0.35" stop-color="#38BDF8" stop-opacity="0.16"></stop>
      <stop offset="1" stop-color="#38BDF8" stop-opacity="0.02"></stop>
    </radialGradient>

    <linearGradient id="bubbleStroke" x1="0" y1="0" x2="1" y2="1" gradientUnits="objectBoundingBox">
      <stop offset="0" stop-color="#CBD5F5" stop-opacity="0.30"></stop>
      <stop offset="0.55" stop-color="#38BDF8" stop-opacity="0.36"></stop>
      <stop offset="1" stop-color="#22C55E" stop-opacity="0.16"></stop>
    </linearGradient>

    <!-- Filters -->
    <filter id="blur26" x="-50%" y="-50%" width="200%" height="200%" color-interpolation-filters="sRGB">
      <feGaussianBlur stdDeviation="26"></feGaussianBlur>
    </filter>

    <filter id="bubbleSoft" x="-80%" y="-80%" width="260%" height="260%" color-interpolation-filters="sRGB">
      <feGaussianBlur stdDeviation="2.2" result="b"></feGaussianBlur>
      <feMerge>
        <feMergeNode in="b"></feMergeNode>
        <feMergeNode in="SourceGraphic"></feMergeNode>
      </feMerge>
    </filter>

    <filter id="glow" x="-80%" y="-80%" width="260%" height="260%" color-interpolation-filters="sRGB">
      <feGaussianBlur stdDeviation="10" result="g"></feGaussianBlur>
      <feColorMatrix in="g" type="matrix" values="1 0 0 0 0
                0 1 0 0 0
                0 0 1 0 0
                0 0 0 0.52 0" result="ga"></feColorMatrix>
      <feMerge>
        <feMergeNode in="ga"></feMergeNode>
        <feMergeNode in="SourceGraphic"></feMergeNode>
      </feMerge>
    </filter>
  </defs>

  <!-- Center column glow + “current” -->
  <g id="parallax-back">
    <ellipse cx="800" cy="430" rx="560" ry="560" fill="url(#columnGlow)" filter="url(#blur26)"></ellipse>
    <path d="M790 840C770 740 820 650 800 560C780 470 820 390 805 300C790 210 820 150 805 40" stroke="#38BDF8" stroke-opacity="0.10" stroke-width="12" filter="url(#blur26)"></path>
  </g>

  <!-- Bubble column (move this group for parallax) -->
  <g id="parallax-bubbles" filter="url(#glow)">
    <!-- Big / medium bubbles -->
    <g transform="translate(720 675)">
      <circle cx="0" cy="0" r="52" fill="url(#bubbleFill)" opacity="0.78"></circle>
      <circle cx="0" cy="0" r="52" fill="none" stroke="url(#bubbleStroke)" stroke-width="2.4" opacity="0.70"></circle>
      <circle cx="-18" cy="-20" r="12" fill="#F8FAFC" opacity="0.10" filter="url(#bubbleSoft)"></circle>
    </g>

    <g transform="translate(865 600)">
      <circle cx="0" cy="0" r="34" fill="url(#bubbleFill)" opacity="0.82"></circle>
      <circle cx="0" cy="0" r="34" fill="none" stroke="url(#bubbleStroke)" stroke-width="2.1" opacity="0.70"></circle>
      <circle cx="-12" cy="-14" r="8" fill="#F8FAFC" opacity="0.10" filter="url(#bubbleSoft)"></circle>
    </g>

    <g transform="translate(790 470)">
      <circle cx="0" cy="0" r="64" fill="url(#bubbleFill)" opacity="0.70"></circle>
      <circle cx="0" cy="0" r="64" fill="none" stroke="url(#bubbleStroke)" stroke-width="2.6" opacity="0.65"></circle>
      <circle cx="-22" cy="-24" r="14" fill="#F8FAFC" opacity="0.10" filter="url(#bubbleSoft)"></circle>
    </g>

    <g transform="translate(905 350)">
      <circle cx="0" cy="0" r="28" fill="url(#bubbleFill)" opacity="0.80"></circle>
      <circle cx="0" cy="0" r="28" fill="none" stroke="url(#bubbleStroke)" stroke-width="2.0" opacity="0.68"></circle>
      <circle cx="-10" cy="-12" r="7" fill="#F8FAFC" opacity="0.10" filter="url(#bubbleSoft)"></circle>
    </g>

    <g transform="translate(770 210)">
      <circle cx="0" cy="0" r="42" fill="url(#bubbleFill)" opacity="0.72"></circle>
      <circle cx="0" cy="0" r="42" fill="none" stroke="url(#bubbleStroke)" stroke-width="2.2" opacity="0.62"></circle>
      <circle cx="-14" cy="-16" r="9" fill="#F8FAFC" opacity="0.10" filter="url(#bubbleSoft)"></circle>
    </g>

    <g transform="translate(840 95)">
      <circle cx="0" cy="0" r="24" fill="url(#bubbleFill)" opacity="0.72"></circle>
      <circle cx="0" cy="0" r="24" fill="none" stroke="url(#bubbleStroke)" stroke-width="1.9" opacity="0.60"></circle>
      <circle cx="-8" cy="-10" r="6" fill="#F8FAFC" opacity="0.10" filter="url(#bubbleSoft)"></circle>
    </g>

    <!-- Small bubbles (adds motion) -->
    <g opacity="0.75">
      <g transform="translate(690 735)">
        <circle cx="0" cy="0" r="10" fill="url(#bubbleFill)"></circle>
        <circle cx="0" cy="0" r="10" fill="none" stroke="url(#bubbleStroke)" stroke-width="1.5" opacity="0.7"></circle>
      </g>
      <g transform="translate(925 700)">
        <circle cx="0" cy="0" r="8" fill="url(#bubbleFill)"></circle>
        <circle cx="0" cy="0" r="8" fill="none" stroke="url(#bubbleStroke)" stroke-width="1.4" opacity="0.7"></circle>
      </g>
      <g transform="translate(720 560)">
        <circle cx="0" cy="0" r="7" fill="url(#bubbleFill)"></circle>
        <circle cx="0" cy="0" r="7" fill="none" stroke="url(#bubbleStroke)" stroke-width="1.3" opacity="0.7"></circle>
      </g>
      <g transform="translate(950 510)">
        <circle cx="0" cy="0" r="9" fill="url(#bubbleFill)"></circle>
        <circle cx="0" cy="0" r="9" fill="none" stroke="url(#bubbleStroke)" stroke-width="1.4" opacity="0.7"></circle>
      </g>
      <g transform="translate(700 360)">
        <circle cx="0" cy="0" r="6" fill="url(#bubbleFill)"></circle>
        <circle cx="0" cy="0" r="6" fill="none" stroke="url(#bubbleStroke)" stroke-width="1.2" opacity="0.7"></circle>
      </g>
      <g transform="translate(930 280)">
        <circle cx="0" cy="0" r="7" fill="url(#bubbleFill)"></circle>
        <circle cx="0" cy="0" r="7" fill="none" stroke="url(#bubbleStroke)" stroke-width="1.3" opacity="0.7"></circle>
      </g>
      <g transform="translate(735 125)">
        <circle cx="0" cy="0" r="8" fill="url(#bubbleFill)"></circle>
        <circle cx="0" cy="0" r="8" fill="none" stroke="url(#bubbleStroke)" stroke-width="1.4" opacity="0.7"></circle>
      </g>
      <g transform="translate(905 60)">
        <circle cx="0" cy="0" r="6" fill="url(#bubbleFill)"></circle>
        <circle cx="0" cy="0" r="6" fill="none" stroke="url(#bubbleStroke)" stroke-width="1.2" opacity="0.7"></circle>
      </g>
    </g>
  </g>

  <!-- Very subtle tech accents (kept unified) -->
  <g id="parallax-front" opacity="0.9">
    <path d="M1040 240H1265C1310 240 1345 275 1345 320V360C1345 405 1380 440 1425 440H1560" stroke="#60A5FA" stroke-opacity="0.12" stroke-width="2.2" stroke-linecap="round"></path>
    <path d="M980 585H1210C1250 585 1282 553 1282 513V450C1282 410 1314 378 1354 378H1560" stroke="#22C55E" stroke-opacity="0.09" stroke-width="2.2" stroke-linecap="round"></path>
    <circle cx="1345" cy="320" r="5" fill="#38BDF8" opacity="0.30"></circle>
    <circle cx="1282" cy="513" r="5" fill="#22C55E" opacity="0.26"></circle>
  </g>
</svg>
